!!! OTL: Berkowitz321
!!! Chapter: 1
!!! Section: III
!!! Page: 78
!!! Mode: 
!!! Encoder: DJB
**kern
*staff1
*I"Piano
=1-
*clefF4
*k[f#c#g#]
*f#:
*M4/4
8.F#\L
16C#\Jk
8C#\L
8A\J
4F#\
16r
16F#\LL
16G#\
16A\JJ
=2
16G#\LL
16F#\
16E#\
16G#\JJ
16F#\LL
16E#\
16D#\
16F#\JJ
16E#/LL
16D#/
16C#/
16BB#/JJ
8C#/L
8C#/J
=3
8.F#\L
16C#\Jk
8C#\L
8A\J
4G#\
16r
16F#\LL
16G#\
16A\JJ
=4
!!linebreak:original
16B\LL
16c#\J
8d\J
16r
16E\LL
16F#\
16G#\JJ
16A\LL
16B\J
8c#\J
16r
16D\LL
16E\
16F#\JJ
=5
16G#\LL
16A\
16B\
16A\JJ
8G#\L
8F#\J
8E#\L
8c#\J
4C#/
=6
8.D/L
16BB/Jk
8BB/L
8F#/J
8.C#/L
16AA/Jk
8AA/L
8F#/J
=7
16E#\LL
16F#\
16G#\
16A\JJ
8G#\L
8F#\J
8E#\L
8G#\J
4c#\
=8
!!linebreak:original
8.F#\L
16C#\Jk
8C#\L
8A\J
4G#\
16r
16F#\LL
16G#\
16A\JJ
=9
16B\LL
16d\
16c#\
16B\JJ
16A\LL
16G#\
16F#\
16E#\JJ
8F#\L
8C#\J
4FF#/
==
*-
